X:1
T:Diasporan
T:For Colyn Fischer
C:T. S. Macdonald
M:6/8
L:1/8
K:Em
%%text Not for dancing
E>GF/E/ e^cd | BcA GEF | E>GF/E/ e^cd | efa fed | E>GF/E/ e^cd | BcA GFE | DB,D ECE | FDF GAB ||
e>gf/e/ BeB | d^cd fed | efb fed | ^cAc fed | e>gf/e/ BeB | d^cB AGF | GBe d^cB | AGF GAB |]

